X:1
T:In dubbio di mio stato (1st version)
T:Orlando Lasso
T:In dubbio di mio stato (1st version)
C:Orlando Lasso
%%score [ 1 2 3 4 ]
L:1/8
Q:1/4=104
M:2/2
K:C
V:1 treble nm="Canto" snm="C"
V:2 alto2 nm="Alto" snm="A"
V:3 alto nm="Tenore" snm="T"
V:4 bass3 nm="Basso" snm="B"
V:1
 x8 | z2 z2 z2 x2 |[M:4/2] A8 B4 d4 | ^c4 d4 d4 B4 | c12 _B4 | A12 G4 | z4 F4 _B8 | A8 z4 e4 | %8
w: ||In dub- bio|di mio sta- to,hor|pian- go, hor|can- to,|E te-|mo e|
 g8 ^f8- | f8 z4 g4 | c4 e4 d4 c4- | c2 d2 e6 d2 d4- | d4 ^c4 d4 B4 | B4 B4 c4 B4 | z4 d4 e4 d4 | %15
w: spe- ro|_ et|in so- spi- ri e in|_ _ _ _ _|* ri- me, Sfo-|go il mio in- car- co:|A- mor tut-|
 ^c4 e4 d8 | ^c8 z4 d4- | d2 d2 d4 e4 f4 | d4 _B8 A4- | A4 G4 A8 | A16 | z4 d8 c4- | c4 _B4 A4 d4 | %23
w: te sue li-|me U-|* sa so- pra'l mio|cor, af- flit-|* to tan-|to.|Hor fia|_ gia- mai che|
 c4 c4 c4 A4 | c8 c8 | z4 f4 e4 d4 | c4 B4 A4 d4 | c4 d4 B8 | ^c8 z8 | z8 z4 e4- | e4 d4 f8 | %31
w: quel bel vi- so|san- to|Ren- da a que-|sti oc- chi le lor|lu- ci pri-|me?|(Las-|* so, non|
 e4 A4 c8- | c4 B4 d8- | d4 c8 B4- | B2 A2 A8 ^G4 | A8 z4 A4 | A4 A4 B8 | c8 d8 | e4 f8 d4 | %39
w: so che di|_ me stes-|* so e- sti-||me) O|li con- dan-|ni a sem-|pi- ter- no|
 d8 e8 | A16 |] %41
w: pian- *|to?|
V:2
 x8 | z2 z2 z2 x2 |[M:4/2][K:treble] ^F8 G4 A4 | A4 _B4 A4 G4 | A12 G4 | F8 E4 E4 | A8 G4 G4- | %7
w: ||In dub- bio|di mio sta- to,hor|pian- go, hor|can- to, E|te- mo e spe-|
 G2 FE F4 E4 E4- | E4 G4 A4 A4 | A8 E4 c4 | A4 c4 B4 A4- | A2 B2 c4 _B8 | A8 ^F4 G4 | G4 G4 G6 A2 | %14
w: * * * * ro et in|_ so- spi- ri e in|ri- me, et|in so- spi- ri e in|_ _ _ ri-|* me, Sfo-|go il mio in- car- *|
 B4 B4 c4 A4 | A4 A8 G4 | A4 A8 A4- | A4 B4 c8 | B4 G4 C8 | D4 D4 E8 | F4 D8 F4 | G2 A4 G2 A6 A2 | %22
w: * co: A- mor|tut- te sue|li- me U- sa|_ so- pra'l|mio cor, af-|flit- to tan-|to. Hor fia|gia- mai, _ _ Hor|
 A4 G4 F4 A4 | A4 A4 G4 F4 | G8 A4 A4 | G4 F4 G6 D2 | E4 G4 F2 E2 F2 G2 | A4 A8 ^G4 | A8 z8 | %29
w: fia gia- mai che|quel bel vi- so|san- to Ren-|da a que- sti oc- chi|le lor lu- * * *|* ci pri-|me?|
 z8 A8 | G4 _B8 A4 | G4 F6 F2 E4 | E4 G8 F4 | A8 A4 G4 | E4 F4 E8 | ^C4 E4 E4 E4 | ^F8 G4 z2 G2 | %37
w: (Las-|so, non so|che di me stes-|so e- sti- me,|che di me|stes- so e- sti-|me) O li con-|dan- ni, O|
 A4 A4 _B4 B4- | B4 A4 F4 G4- | G4 A4 G8 | ^F16 |] %41
w: li con- dan- ni a|_ sem- pi- ter-|* no pian-|to?|
V:3
 x8 | z2 z2 z2 x2 |[M:4/2][K:treble-8] d8 d4 f4 | e4 g4 f4 d4 | f12 d4 | d8 c8- | c8 z4 G4 | %7
w: ||In dub- bio|di mio sta- to,hor|pian- go, hor|can- to,|_ E|
 d12 c4 | z4 B4 d4 d4 | z4 d4 g4 e4 | f4 z2 g2 g4 e4 | f4 g4 g6 f2 | e8 d4 d4 | e4 d4 e4 d4 | %14
w: te- mo|e spe- ro|et in so-|spir, et in so-|spi- ri e in ri- *|* me, Sfo-|go il mio in- car- co:|
 g12 f4 | e4 A4 d8 | e8 ^f6 f2 | ^f4 g8 a4 | g4 d4 f4 e4- | e2 d2 d8 ^c4 | d4 f8 d4 | %21
w: A- mor|tut- te sue|li- me U- sa|so- pra'l mio|cor, af- flit- to|_ _ _ tan-|to. Hor fia|
 e4 d2 d2 f4 e4 | f2 e2 d2 c2 d4 f4 | f2 e2 c2 d2 e4 f4- | f4 e4 f4 f4 | e4 d4 c4 B4 | %26
w: gia- mai che quel bel|vi- * * * * so|san- * * * * *|* * to Ren-|da a que- sti oc- chi|
 A4 G4 d6 e2 | f4 d4 e8 | A8 e8 | d4 f8 c4- | c4 g4 d4 f4 | c4 d4 A6 B2 | c2 A2 d4 G4 d4 | %33
w: le lor lu- *|* ci pri-|me? (Las-|so, non so|_ che di me|stes- so e- sti- *|* * * me, non|
 f4 e4 f4 d4 | ^c4 d4 B8 | A4 ^c4 c4 c4 | d12 d4 | f12 f4 | g4 c4 d4 G2 A2 | _B2 G2 d8 ^c4 | d16 |] %41
w: so che di me|stes- so e- sti-|me) O li con-|dan- ni a|sem- pi-|ter- no pian- * *||to?|
V:4
 x8 | z2 z2 z2 x2 |[M:4/2][K:bass] D,8 G,4 D,4 | A,4 G,4 D4 G,4 | F,12 G,4 | %5
w: ||In dub- bio|di mio sta- to,hor|pian- go, hor|
 D,2 E,2 F,2 G,2 A,2 B,2 C4 | F,8 z8 | z4 D,4 A,8 | E,8 z4 D,4 | D8 C8 | z4 C4 G,4 A,4 | %11
w: can- * * * * * *|to,|E te-|mo e|spe- ro|et in so-|
 F,4 E,4 G,8 | A,8 D,4 G,4 | E,4 G,4 C,4 G,4 | z4 G,4 C4 D4 | A,4 C4 _B,8 | A,8 D6 D2 | %17
w: spi- ri e in ri-|* me, Sfo-|go il mio in- car- co:|A- mor tut-|te sue li-|me U- sa|
 D4 G,4 C4 F,4 | G,8 A,8 | _B,8 A,8 | D,8 D8 | C4 _B,4 A,4 A,4 | F,4 G,4 D,6 E,2 | %23
w: so- pra'l mio cor,|af- flit-|to tan-|to. Hor|fia gia- mai che|quel bel vi- *|
 F,2 G,2 A,2 B,2 C4 D4 | C8 F,8 | z16 | z16 | z16 | z4 A,8 G,4 | _B,8 A,8 | z16 | z8 z4 A,4- | %32
w: * * * * * so|san- to||||(Las- so,|non so,||(Las-|
 A,4 G,4 _B,8 | A,4 A,4 F,4 G,4 | A,4 D,4 E,8 | A,,4 A,4 A,4 A,4 | D,8 G,8 | F,4 F,4 _B,6 A,2 | %38
w: * so, non|so che di me|stes- so e- sti-|me) O li con-|dan- ni a|sem- pi- ter- *|
 G,4 F,4 _B,6 A,2 | G,4 F,4 E,8 | D,16 |] %41
w: * no pian- *||to?|

